packages/kaspersky-hexa-ui-icons/src/iconsSVGs/24/PhoneSolid.svg

<svg width="24" height="24" viewBox="0 0 24 24" fill="none" xmlns="http://www.w3.org/2000/svg">
<path fill-rule="evenodd" clip-rule="evenodd" d="M3.00556 3.91428C3.04952 3.39956 3.48075 3 4.0019 3H7.22118C8.13891 3 8.93888 3.62459 9.16146 4.51493L9.83387 7.20454C10.0052 7.89002 9.8022 8.61504 9.29975 9.11182L7.2228 11.1653C7.85405 12.1885 8.66539 13.2492 9.70906 14.2929C10.7321 15.3159 11.7995 16.1168 12.8439 16.7439L14.8945 14.6933C15.3913 14.1965 16.1122 13.9968 16.7938 14.1672L19.487 14.8405C20.3774 15.0631 21.002 15.8631 21.0019 16.7808L21.0019 20C21.0019 20.5129 20.6157 20.9357 20.1182 20.9933C20.039 21.0025 19.9566 21.0002 19.875 20.9982C19.5374 20.9899 19.2002 20.9554 18.8652 20.9145C18.1788 20.8308 17.2178 20.6647 16.0948 20.3344C15.0666 20.032 13.8993 19.5909 12.6819 18.9476C12.5768 18.9122 12.4764 18.8588 12.3855 18.7875C11.0341 18.0413 9.63068 17.0429 8.29485 15.7071C6.88961 14.3019 5.85435 12.8587 5.09304 11.4847C3.97662 9.4698 3.45357 7.61182 3.20986 6.24926C3.08797 5.56775 3.03566 5.00856 3.01408 4.6132C3.00158 4.38485 2.9861 4.14214 3.00556 3.91428Z" fill="black"/>
</svg>

<svg xmlns="http://www.w3.org/2000/svg" width="24" height="24" fill="none" viewBox="0 0 24 24"><path fill="#000" fill-rule="evenodd" d="M3.0056 3.9143A1 1 0 0 1 4.0019 3h3.2193a2 2 0 0 1 1.9403 1.515l.6724 2.6895a2 2 0 0 1-.5342 1.9073l-2.0769 2.0535c.6312 1.0232 1.4426 2.0839 2.4863 3.1276a16.27 16.27 0 0 0 3.1348 2.451l2.0506-2.0506a2 2 0 0 1 1.8993-.5261l2.6932.6733a2 2 0 0 1 1.5149 1.9403V20c0 .5129-.3862.9357-.8837.9933-.0792.0092-.1616.0069-.2432.0049-.3376-.0083-.6748-.0428-1.0098-.0837-.6864-.0837-1.6474-.2498-2.7704-.5801a18.47 18.47 0 0 1-3.4129-1.3868 1 1 0 0 1-.2964-.1601c-1.3514-.7462-2.7548-1.7446-4.0906-3.0804-1.4053-1.4052-2.4405-2.8484-3.2019-4.2224C3.9766 9.4698 3.4536 7.6118 3.21 6.2493c-.122-.6815-.1742-1.2407-.1958-1.6361-.0125-.2283-.028-.471-.0085-.699"/></svg>
